X:10
T:Angela and Saraha's Waltz
R:waltz
C:Bruce Osborne  --  July 2 1990
Z:abc by bosborne@kos.net
M:3/4
L:1/8
K:A
cB|A2 E2 EE|F2 D2 DF|E3 F EC|A,4 (3A,CE|\
A2 c3 e|a2 g2 (3faf|e2 d2 c2|B4 cB|\
A2 E3 E|F2 D2 DF|E3 F EC|A,4 (3A,CE|\
A2 c2 ea|g2 f2 g2|a2 e2 c2|A4||\
A2|A,3 C EA|c2 (3BcB A2|d3 e fd|e4 ef|\
e2 c2 e2|a2 g2 (3faf|e2 d2 c2|B4 z2|\
A,3 C EA|c2 (3BcB A2|d3 e fd|e4 ef|\
e2 c3 c|d2 B2 G2|A3 G AB|A4||
